X: 21403
T: Jack of the Green
%R: slip-jig
B: James Oswald "The Caledonian Pocket Companion" v.2 p.140 #3
Z: 2018 John Chambers <jc:trillian.mit.edu>
M: 9/8
L: 1/8
K: D
|:"_Brisk"\
C2E (D/E/F)D E3 | A3 E2A TF2D |\
C2E (D/E/F)D E3 | d3 D2A TF2D ::\
def efg fed | e3 E2A TF2D |
def efg fef | d3 D2A TF2D ::\
(C/D/E)C (D/E/F)D (E/F/G)E | F2A AEG FED |\
(C/D/E)C (D/E/F)D E2c |
d3 dAG FED ::\
afd afd afd | g3 B2e Tc2A |\
afd egf edc | d3 D2A TF2D :|
